X: 1
T: Kitten Feels Better, The
M: 4/4
L: 1/8
R: reel
K: Gmaj
|:E|DEGE B3A|B2dB AGEG|A2BG AGEG|eGdG BAGE|
DEGE B3A|B2dB AGEG|A2BG AGEG|DEBA G3:|
|:A|Bdeg e2dB|dega geeB|d2ed BAGE|GAAB AGEG|
DEGE B2AB|dega geeB|d2ed BAGE|DEBA G3:|
